X: 17091
T: Hector The Hero
R: waltz
M: 3/4
K: Amajor
|:A2|
c3 B A2|f2 e2 c2|e6-|e4 A2|c3 B A2|f2 e2 c2|B6-|B4 A2|
c3 B A2|f2 e2 c2|e4 A2|a4 (A2f2)|e2 A2 .c2|B4 A2|A6-|A4:|
|:c2|f2 g2 f2|a2 g2 f2|e6-|e4 c2|f2 e2 c2|e2 A2 c2|B6-|B4 c2|
f2 g2 f2|a2 g2 f2|eAB|ca- Ha2 f2|e2 A2 .c2|B4 A2|A6-|A4:|

